qml/icons/fallback/profile-online-symbolic.svg

<?xml version="1.0" encoding="UTF-8" standalone="no"?>
<!-- Generator: Adobe Illustrator 17.0.1, SVG Export Plug-In . SVG Version: 6.00 Build 0)  -->

<svg
   xmlns:dc="http://purl.org/dc/elements/1.1/"
   xmlns:cc="http://creativecommons.org/ns#"
   xmlns:rdf="http://www.w3.org/1999/02/22-rdf-syntax-ns#"
   xmlns:svg="http://www.w3.org/2000/svg"
   xmlns="http://www.w3.org/2000/svg"
   xmlns:sodipodi="http://sodipodi.sourceforge.net/DTD/sodipodi-0.dtd"
   xmlns:inkscape="http://www.inkscape.org/namespaces/inkscape"
   version="1.1"
   id="Layer_1"
   x="0px"
   y="0px"
   width="64px"
   height="64px"
   viewBox="0 0 64 64"
   style="enable-background:new 0 0 64 64;"
   xml:space="preserve"
   sodipodi:docname="profile-online-symbolic.svg"
   inkscape:export-filename="/home/mo/Dokumente/Pure Maps/missing/profile_offline.png"
   inkscape:export-xdpi="132"
   inkscape:export-ydpi="132"
   inkscape:version="0.92.4 5da689c313, 2019-01-14"><metadata
   id="metadata21"><rdf:RDF><cc:Work
       rdf:about=""><dc:format>image/svg+xml</dc:format><dc:type
         rdf:resource="http://purl.org/dc/dcmitype/StillImage" /><dc:title /></cc:Work></rdf:RDF></metadata><defs
   id="defs19">
	
	
	

		
		
	</defs><sodipodi:namedview
   pagecolor="#ffffff"
   bordercolor="#666666"
   borderopacity="1"
   objecttolerance="20"
   gridtolerance="5"
   guidetolerance="15"
   inkscape:pageopacity="0"
   inkscape:pageshadow="2"
   inkscape:window-width="2880"
   inkscape:window-height="1506"
   id="namedview17"
   showgrid="true"
   inkscape:zoom="17.777778"
   inkscape:cx="31.890556"
   inkscape:cy="27.964496"
   inkscape:window-x="0"
   inkscape:window-y="0"
   inkscape:window-maximized="1"
   inkscape:current-layer="Layer_1"
   inkscape:showpageshadow="false"
   showborder="true"
   inkscape:snap-perpendicular="true"
   inkscape:snap-path-clip="true"
   showguides="true"
   inkscape:guide-bbox="true"><inkscape:grid
     type="xygrid"
     id="grid833" /><sodipodi:guide
     position="64,10"
     orientation="1,0"
     id="guide835"
     inkscape:locked="false" /></sodipodi:namedview>
<rect
   y="0"
   x="0"
   height="64"
   width="64"
   style="opacity:0;fill:#ffffff"
   id="icon-m-transfer_1_" /><path
   style="opacity:1;fill:#000000;stroke-width:1.34133506"
   d="M 15.03125 5.9941406 C 14.027931 5.9941406 13.096989 6.5665 12.474609 7.5644531 L 0.55664062 26.673828 C -0.081834335 27.695925 -0.17026294 28.776805 0.30859375 29.640625 C 0.78745048 30.505786 1.7544658 31 2.9589844 31 L 10.998047 31 L 10.998047 54.236328 C 10.998047 56.316324 12.791031 58 15 58 C 17.208971 58 19.001953 56.316324 19.001953 54.236328 L 19.001953 31 L 27.101562 31 C 28.30608 31 29.274319 30.505174 29.755859 29.638672 C 30.234715 28.776193 30.142993 27.693972 29.505859 26.671875 L 17.589844 7.5644531 C 16.967464 6.5665 16.034569 5.9941406 15.03125 5.9941406 z "
   id="path9" />
<path
   id="path819"
   d="m 49,58 c 1.003319,0 1.934261,-0.572359 2.556641,-1.570312 L 63.47461,37.320313 c 0.638475,-1.022097 0.726903,-2.102977 0.248047,-2.966797 C 63.2438,33.488355 62.276785,32.994141 61.072266,32.994141 H 53.033203 V 9.7578126 c 0,-2.079996 -1.792984,-3.763672 -4.001953,-3.763672 -2.208971,0 -4.001953,1.683676 -4.001953,3.763672 V 32.994141 h -8.099608 c -1.204518,0 -2.172758,0.494826 -2.654298,1.361328 -0.478856,0.862479 -0.387134,1.9447 0.25,2.966797 L 46.441406,56.429688 C 47.063786,57.427641 47.996681,58 49,58 Z"
   style="opacity:1;fill:#000000;stroke-width:1.34133506"
   inkscape:connector-curvature="0" /></svg>

<svg xmlns="http://www.w3.org/2000/svg" width="64" height="64" style="enable-background:new 0 0 64 64" xml:space="preserve"><path style="opacity:1;fill:#000;stroke-width:1.34133506" d="M15.031 5.994c-1.003 0-1.934.572-2.556 1.57L.557 26.674c-.639 1.022-.727 2.103-.248 2.967C.787 30.506 1.754 31 2.959 31h8.039v23.236C10.998 56.316 12.791 58 15 58c2.209 0 4.002-1.684 4.002-3.764V31h8.1c1.204 0 2.172-.495 2.654-1.361.479-.863.387-1.945-.25-2.967L17.59 7.564c-.623-.998-1.555-1.57-2.559-1.57zM49 58c1.003 0 1.934-.572 2.557-1.57l11.918-19.11c.638-1.022.727-2.103.248-2.966-.48-.866-1.446-1.36-2.65-1.36h-8.04V9.758c0-2.08-1.793-3.764-4.002-3.764-2.209 0-4.002 1.684-4.002 3.764v23.236h-8.1c-1.204 0-2.172.495-2.654 1.361-.478.863-.387 1.945.25 2.967L46.441 56.43C47.064 57.428 47.997 58 49 58Z"/></svg>
